X: 1640
T: Sabâ Peşrev
C: Zurnazen Daği Ahmet Çelebi
O: Turkey
F: http://compmusic.upf.edu/node/140
N: saba--pesrev--hafif----zurnazen_dagi_ahmet_celebi
N: makam= saba
N: form= pesrev
N: usul= hafif = 32/4
M: 32/4
L: 1/16
K: C _2/4B _3/4d  
Q: 1/4=72
%%MIDI tuningsystem comma53
_7/8d2 c4 _1/4B2 B2 A6  | G2 A4 _1/4B2 c2 B2 c4  | \
w:   |   | 
_7/8d2 c4 _1/4B2 B2 A2 G4  | _1/4B2 A2 G2 B2 A8  | 
w:   |   | 
c2 _7/8d2 e2 f2 e2 d2 c2 _1/4B2  | \
w:   | 
A2 G2 A2 _1/4B2 c8  | c2 _7/8d2 e2 f2 e2 d2 c2 _1/4B2  | 
w:   |   | 
c2 _7/8d2 c2 _1/4B2 A8  | c2 _7/8d2 e2 f2 e2 d2 c2 _1/4B2  | \
w:   |   | 
A2 G2 A2 _1/4B2 c8  | c2 _7/8d2 e2 f2 e2 d2 c2 _1/4B2  | 
w:   |   | 
c2 _7/8d2 c2 _1/4B2 A8  | G8 c2 _1/4B2 c2 =d2  | \
w:   |   | 
A6 _1/4B2 A2 G2 A2 ^F2  | G8 c2 _1/4B2 A2 G2  | 
w:   |   | 
_1/4B2 A2 G2 B2 A8  | A2 f4 g2 a2 g2 a4  | \
w:   |   | 
_7/8d2 f4 g2 a2 g2 a4  | e2 f2 g2 a2 a2 f2 g2 e2  | 
w:   |   | 
e2 f2 e2 _7/8d2 e8  | _7/8d2 c4 _1/4B2 B2 A6  | \
w:   |   | 
A2 _1/4B4 c2 _7/8d2 c2 d4  | _7/8d2 c4 _1/4B2 B2 A2 G4  | 
w:   |   | 
_1/4B2 A2 G2 B2 A8  | |


